X: 26
T: Wind That Shakes The Barley, The
Z: UPipes & harp
S: https://thesession.org/tunes/116#setting49187
R: reel
M: 4/4
L: 1/8
K: Dmaj
A2 (3FED ADED|BDAD B2 dB|ADFD A2 de|fdec BddB|
AD (3FED AD (3FED|BDAD B2 dB|ADFD Ade|fded Bdde||
f2 ef g2 eg|fedf e2 de|fd d a3 ab|afed Bdde|
f2 ef g2 eg|fedf e2 (3ABc|defa afbf|afed BddB||

